X: 28
T: Polska efter Jonas Skoglund
T: (SvL Uppland nr. 28)
B: Svenska Låtar Uppland nr 28
Z: Nils L, 2009-01-20
R: Polska
O: Uppland
S: efter Jonas Skoglund
Q: 120
M: 3/4
L: 1/16
K: Dm
A2>d2 ^c3ze d4 | =c2ce g2ge f2ed | e2(f2 a2)f2 e2d2 | {^cd}c2z2 A8 |
A2>d2 ^c2ce d4 | =c2-!>!ce g2ge f4  | e2f2 a2f2 e2d2 | (^cd)ec d8 ::
f2a2 f2a2 g2c2 | (ec)eg b2g2 f2e2 | d2f2 a2f2 e2d2 | ^c2z2 A8 |
A2>d2 ^c2e2 d4 | c2ce g2ge f4 | e2f2 a2f2 e2d2 | (^cd)ec d8 :|

